X: 238
T: Thou of the Beautiful Hair
B: O'Neill's 238
N: "Moderate"
N: "Collected by J.O'Neill"
Z: 1997 by John Chambers <jc@trillian.mit.edu>
M: C
L: 1/8
K:G
d>c \
| .B2.B2 (B>AG)B | .d2.d2 (=f>ed)^f | (g2B2) (B>AG)B | (c4 d2)d>c |
| .B2.B2 (B>AG)B | .d2.d2 (=f>ed)^f | e>d BG A3G | G4 G2 ||
|| (de) \
| =f2d2 f2d>e | =f>e ((3dBA) B2(de) | =f2 ((3edB) (g2B2) | ~c4 {de}d2d>c |
| .B2.B2 (B>AG)B | .d2.d2 (=f>ed)^f | e>d BG A3G | G4 G2 ||


